assets/icons/userlight.svg

<svg width="24" height="24" viewBox="0 0 24 24" fill="none" xmlns="http://www.w3.org/2000/svg">
<path d="M18.1394 21.6198C17.2594 21.8798 16.2194 21.9998 14.9994 21.9998H8.99937C7.77937 21.9998 6.73937 21.8798 5.85938 21.6198C6.07937 19.0198 8.74937 16.9697 11.9994 16.9697C15.2494 16.9697 17.9194 19.0198 18.1394 21.6198Z" stroke="#5E6875" stroke-width="1.5" stroke-linecap="round" stroke-linejoin="round"/>
<path d="M15 2H9C4 2 2 4 2 9V15C2 18.78 3.14 20.85 5.86 21.62C6.08 19.02 8.75 16.97 12 16.97C15.25 16.97 17.92 19.02 18.14 21.62C20.86 20.85 22 18.78 22 15V9C22 4 20 2 15 2ZM12 14.17C10.02 14.17 8.42 12.56 8.42 10.58C8.42 8.60002 10.02 7 12 7C13.98 7 15.58 8.60002 15.58 10.58C15.58 12.56 13.98 14.17 12 14.17Z" stroke="#5E6875" stroke-width="1.5" stroke-linecap="round" stroke-linejoin="round"/>
<path d="M15.5799 10.58C15.5799 12.56 13.9799 14.17 11.9999 14.17C10.0199 14.17 8.41992 12.56 8.41992 10.58C8.41992 8.60002 10.0199 7 11.9999 7C13.9799 7 15.5799 8.60002 15.5799 10.58Z" stroke="#5E6875" stroke-width="1.5" stroke-linecap="round" stroke-linejoin="round"/>
</svg>

<svg width="24" height="24" viewBox="0 0 24 24" fill="none" xmlns="http://www.w3.org/2000/svg"><path d="M18.14 21.62q-1.31.39-3.14.38H9q-1.82 0-3.14-.38c.22-2.6 2.89-4.65 6.14-4.65s5.92 2.05 6.14 4.65" stroke="#5E6875" stroke-width="1.5" stroke-linecap="round" stroke-linejoin="round"/><path d="M15 2H9C4 2 2 4 2 9v6c0 3.78 1.14 5.85 3.86 6.62.22-2.6 2.89-4.65 6.14-4.65s5.92 2.05 6.14 4.65C20.86 20.85 22 18.78 22 15V9c0-5-2-7-7-7m-3 12.17A3.58 3.58 0 1 1 12.01 7a3.58 3.58 0 0 1-.01 7.17" stroke="#5E6875" stroke-width="1.5" stroke-linecap="round" stroke-linejoin="round"/><path d="M15.58 10.58a3.58 3.58 0 1 1-7.17.01 3.58 3.58 0 0 1 7.17-.01" stroke="#5E6875" stroke-width="1.5" stroke-linecap="round" stroke-linejoin="round"/></svg>
